src/assets/img/globalping/sponsors/ipinfo.svg

<svg width="100" height="30" viewBox="0 0 100 30" fill="none" xmlns="http://www.w3.org/2000/svg">
<g clip-path="url(#clip0_3943_6551)">
<path d="M31.422 6.0804C31.6332 6.07835 31.8426 6.11992 32.0371 6.20251C32.2315 6.2851 32.4068 6.40694 32.552 6.5604C32.7044 6.71237 32.8246 6.89351 32.9053 7.093C32.9861 7.29249 33.0258 7.50622 33.022 7.7214C33.0263 7.93467 32.9873 8.1466 32.9072 8.34429C32.8271 8.54199 32.7076 8.72133 32.556 8.8714C32.4129 9.02315 32.24 9.14368 32.0481 9.22542C31.8562 9.30717 31.6495 9.34835 31.441 9.3464C31.2274 9.34989 31.0155 9.30831 30.8191 9.2244C30.6227 9.14049 30.4461 9.01612 30.301 8.8594C30.1471 8.70574 30.0259 8.52249 29.9448 8.32072C29.8637 8.11894 29.8243 7.90282 29.829 7.6854C29.826 7.47434 29.8656 7.26485 29.9455 7.06947C30.0254 6.8741 30.1439 6.69687 30.294 6.5484C30.4404 6.39754 30.616 6.27813 30.8101 6.19748C31.0043 6.11684 31.2128 6.07666 31.423 6.0794L31.422 6.0814V6.0804ZM30.166 10.2124H32.676V20.2494H30.166V10.2124V10.2124ZM37.416 10.2124V11.3224C37.835 10.8924 38.332 10.5454 38.881 10.3014C39.4127 10.0724 39.986 9.95564 40.565 9.9584C41.1922 9.95114 41.8135 10.0803 42.3859 10.3368C42.9583 10.5934 43.4681 10.9713 43.88 11.4444C44.8091 12.4908 45.2972 13.8561 45.242 15.2544C45.2832 16.6412 44.7767 17.9884 43.832 19.0044C43.4145 19.4795 42.9004 19.86 42.324 20.1204C41.748 20.3804 41.124 20.5144 40.493 20.5124C39.943 20.5164 39.399 20.4124 38.89 20.2034C38.3409 19.9594 37.841 19.6171 37.415 19.1934V23.9234H34.934V10.2114H37.415L37.416 10.2124ZM40.043 12.2804C39.6774 12.2698 39.3137 12.3368 38.9759 12.477C38.6381 12.6171 38.3338 12.8272 38.083 13.0934C37.8196 13.3773 37.6152 13.7108 37.4818 14.0744C37.3484 14.438 37.2887 14.8245 37.306 15.2114C37.2704 16.0067 37.55 16.784 38.084 17.3744C38.3334 17.6433 38.6372 17.856 38.9751 17.9986C39.313 18.1412 39.6773 18.2103 40.044 18.2014C40.4067 18.208 40.7665 18.1364 41.0991 17.9915C41.4316 17.8465 41.729 17.6316 41.971 17.3614C42.5013 16.7778 42.7813 16.0094 42.751 15.2214C42.781 14.4414 42.505 13.6814 41.983 13.1044C41.7376 12.8359 41.4374 12.6231 41.1027 12.4804C40.7681 12.3377 40.4067 12.2685 40.043 12.2774V12.2804ZM48.29 6.0804C48.5016 6.07807 48.7113 6.11951 48.9062 6.20211C49.101 6.28471 49.2766 6.4067 49.422 6.5604C49.5745 6.71248 49.6948 6.89379 49.7755 7.09346C49.8563 7.29313 49.8959 7.50705 49.892 7.7224C49.8963 7.93567 49.8573 8.1476 49.7772 8.34529C49.6971 8.54299 49.5776 8.72233 49.426 8.8724C49.2829 9.0241 49.11 9.1446 48.9181 9.22634C48.7262 9.30808 48.5195 9.34929 48.311 9.3474C48.0974 9.35089 47.8855 9.30932 47.6891 9.2254C47.4927 9.14149 47.3161 9.01712 47.171 8.8604C47.0171 8.70677 46.8959 8.52353 46.8147 8.32175C46.7336 8.11997 46.6942 7.90383 46.699 7.6864C46.6959 7.47534 46.7355 7.26582 46.8154 7.07044C46.8953 6.87506 47.0139 6.69783 47.164 6.5494C47.3104 6.39854 47.486 6.27913 47.6801 6.19848C47.8743 6.11784 48.0828 6.07766 48.293 6.0804H48.29V6.0804ZM47.035 10.2124H49.545V20.2494H47.035V10.2124ZM51.803 10.2124H54.293V11.2384C54.7526 10.8262 55.2739 10.4885 55.838 10.2374C56.2854 10.0508 56.7652 9.9543 57.25 9.9534C57.7192 9.94499 58.1851 10.0336 58.6184 10.2138C59.0517 10.394 59.4431 10.6618 59.768 11.0004C60.0796 11.3576 60.317 11.7731 60.4663 12.223C60.6157 12.6728 60.674 13.1478 60.638 13.6204V20.2504H58.166V15.8524C58.196 15.0524 58.142 14.2524 58.002 13.4644C57.9198 13.1108 57.7229 12.7943 57.442 12.5644C57.1597 12.3534 56.8142 12.2445 56.462 12.2554C56.2212 12.2506 55.9819 12.2935 55.7578 12.3815C55.5336 12.4696 55.3291 12.601 55.156 12.7684C54.769 13.1534 54.506 13.6454 54.4 14.1824C54.3039 14.8579 54.2671 15.5405 54.29 16.2224V20.2524H51.8V10.2124H51.803V10.2124ZM61.863 10.2124H62.753C62.76 8.8984 62.779 8.1204 62.817 7.8774C62.8397 7.62371 62.9124 7.37701 63.0308 7.1515C63.1492 6.926 63.311 6.72613 63.507 6.5634C63.9906 6.21148 64.582 6.03958 65.179 6.0774C65.78 6.0944 66.374 6.2174 66.934 6.4404V8.3604C66.6468 8.26657 66.3479 8.21372 66.046 8.2034C65.8176 8.18364 65.5898 8.2484 65.406 8.3854C65.2872 8.55171 65.2355 8.75665 65.261 8.9594L65.251 10.2124H66.836V12.3524H65.25V20.2494H62.753V12.3534H61.865V10.2134L61.864 10.2124H61.863ZM72.978 9.9534C73.9094 9.95231 74.8244 10.198 75.63 10.6654C76.432 11.122 77.0978 11.784 77.559 12.5834C78.021 13.3844 78.264 14.2954 78.261 15.2214C78.2644 16.1531 78.023 17.0693 77.561 17.8784C77.1114 18.6843 76.4512 19.3528 75.651 19.8124C74.8405 20.2767 73.921 20.5166 72.987 20.5074C72.3045 20.5181 71.6272 20.3872 70.9979 20.1228C70.3686 19.8584 69.801 19.4663 69.331 18.9714C68.84 18.484 68.4527 17.9022 68.1923 17.2612C67.9319 16.6202 67.8039 15.9332 67.816 15.2414C67.8 14.5014 67.946 13.7674 68.242 13.0894C68.537 12.4133 68.9759 11.8096 69.528 11.3204C70.459 10.4375 71.6949 9.9481 72.978 9.9544V9.9534ZM73.017 12.3254C72.6544 12.3162 72.294 12.3844 71.9598 12.5254C71.6256 12.6665 71.3253 12.8772 71.079 13.1434C70.8193 13.4236 70.6174 13.7522 70.485 14.1105C70.3525 14.4688 70.292 14.8497 70.307 15.2314C70.2714 16.0125 70.5461 16.7759 71.071 17.3554C71.3173 17.6202 71.6171 17.8296 71.9506 17.9696C72.284 18.1096 72.6435 18.177 73.005 18.1674C73.3697 18.1771 73.7323 18.1088 74.0685 17.9672C74.4048 17.8257 74.707 17.614 74.955 17.3464C75.2172 17.0627 75.4209 16.73 75.5542 16.3674C75.6876 16.0048 75.748 15.6194 75.732 15.2334C75.7643 14.4613 75.4904 13.7077 74.97 13.1364C74.7198 12.8714 74.4166 12.6623 74.08 12.5225C73.7435 12.3828 73.3813 12.3156 73.017 12.3254V12.3254ZM81.667 17.6204C81.8555 17.6173 82.0427 17.6529 82.2169 17.725C82.3911 17.7971 82.5487 17.9041 82.68 18.0394C82.8466 18.2083 82.9693 18.4155 83.0371 18.6429C83.1049 18.8703 83.1159 19.1108 83.069 19.3434C83.0224 19.5754 82.9198 19.7924 82.7701 19.9756C82.6203 20.1588 82.4281 20.3026 82.21 20.3944C81.881 20.532 81.5124 20.5413 81.177 20.4204C80.8415 20.2995 80.5636 20.0572 80.398 19.7414C80.2982 19.5528 80.2411 19.3447 80.2307 19.1316C80.2204 18.9185 80.257 18.7058 80.338 18.5084C80.4839 18.1559 80.7637 17.8758 81.116 17.7294C81.29 17.6574 81.476 17.6214 81.665 17.6224L81.666 17.6204H81.667ZM86.527 6.0804C86.7386 6.07807 86.9483 6.11951 87.1431 6.20211C87.3379 6.28471 87.5136 6.4067 87.659 6.5604C87.8113 6.71257 87.9314 6.89391 88.012 7.09358C88.0926 7.29325 88.132 7.50713 88.128 7.7224C88.1323 7.93566 88.0932 8.14757 88.0131 8.34526C87.933 8.54295 87.8135 8.72229 87.662 8.8724C87.5188 9.02406 87.3459 9.14452 87.1541 9.22626C86.9622 9.30799 86.7555 9.34923 86.547 9.3474C86.3334 9.35089 86.1215 9.30932 85.9251 9.2254C85.7287 9.14149 85.5521 9.01712 85.407 8.8604C85.2531 8.70674 85.1319 8.52349 85.0508 8.32172C84.9697 8.11994 84.9303 7.90382 84.935 7.6864C84.9341 7.26123 85.1012 6.85293 85.4 6.5504C85.5477 6.40145 85.7234 6.28323 85.917 6.20256C86.1106 6.12189 86.3182 6.08037 86.528 6.0804H86.527ZM85.272 10.2124H87.782V20.2494H85.272V10.2124V10.2124ZM94.718 9.9534C95.6494 9.95231 96.5644 10.198 97.37 10.6654C98.172 11.1219 98.8379 11.784 99.299 12.5834C99.7611 13.3856 100.003 14.2956 100.001 15.2214C100.004 16.1531 99.7629 17.0693 99.301 17.8784C98.8514 18.6843 98.1912 19.3528 97.391 19.8124C96.5802 20.2768 95.6603 20.5167 94.726 20.5074C94.0448 20.5175 93.369 20.3864 92.741 20.1224C92.1118 19.8575 91.5439 19.4657 91.073 18.9714C90.5821 18.4839 90.1948 17.9022 89.9345 17.2612C89.6741 16.6202 89.5461 15.9332 89.558 15.2414C89.5415 14.5021 89.6862 13.7681 89.982 13.0904C90.2763 12.4141 90.7145 11.8101 91.266 11.3204C92.1968 10.4371 93.4328 9.94737 94.716 9.9534H94.718V9.9534ZM94.755 12.3254C94.3925 12.3162 94.0323 12.3844 93.6983 12.5255C93.3642 12.6665 93.0641 12.8772 92.818 13.1434C92.5582 13.4235 92.3562 13.7522 92.2236 14.1104C92.091 14.4687 92.0303 14.8496 92.045 15.2314C92.0101 16.0127 92.2854 16.7762 92.811 17.3554C93.0573 17.6202 93.3571 17.8296 93.6906 17.9696C94.024 18.1096 94.3835 18.177 94.745 18.1674C95.1095 18.177 95.472 18.1087 95.808 17.9671C96.1441 17.8255 96.4462 17.6139 96.694 17.3464C96.9564 17.0628 97.1602 16.7301 97.2938 16.3675C97.4273 16.0049 97.4878 15.6195 97.472 15.2334C97.504 14.4613 97.2302 13.7078 96.71 13.1364C96.4593 12.8714 96.1555 12.6624 95.8184 12.523C95.4813 12.3835 95.1186 12.3169 94.754 12.3274L94.755 12.3254V12.3254Z" fill="#1E283A"/>
<path fill-rule="evenodd" clip-rule="evenodd" d="M13.2061 22.6087L15.1581 24.8817L17.4131 22.9157L19.6221 20.9897C21.9976 18.9012 23.4548 15.9609 23.6781 12.8057C23.9057 9.64818 22.882 6.52782 20.8281 4.11875C19.8094 2.93733 18.5678 1.96829 17.1744 1.26701C15.7809 0.565733 14.2629 0.14598 12.7071 0.0317478C11.1521 -0.0805597 9.59013 0.115238 8.11091 0.607911C6.63169 1.10058 5.26428 1.88044 4.08712 2.90275C1.71147 4.99162 0.254276 7.93223 0.0311231 11.0877C-0.196099 14.245 0.827588 17.3649 2.88112 19.7737L10.6701 28.8437C11.3661 29.6537 12.0981 30.5317 13.2291 29.5957L13.2631 29.5667L13.2951 29.5377C14.3771 28.5427 13.6201 27.6867 12.9241 26.8757L12.4381 26.3107L5.13612 17.8037C3.60077 15.9993 2.83582 13.6639 3.00612 11.3007C3.17377 8.93906 4.26397 6.73817 6.04112 5.17375C6.92284 4.40938 7.94664 3.82639 9.05392 3.45815C10.1612 3.08992 11.3302 2.94366 12.4941 3.02775C14.846 3.20081 17.033 4.30074 18.5741 6.08575C20.1095 7.89019 20.8744 10.2256 20.7041 12.5887C20.5367 14.9503 19.4469 17.1512 17.6701 18.7157L15.4621 20.6417L13.5101 18.3687L11.5581 16.0957L9.64812 13.8707C9.14906 13.2759 8.901 12.5101 8.95643 11.7356C9.01186 10.9611 9.36643 10.2385 9.94512 9.72075C10.5329 9.21865 11.295 8.96847 12.066 9.02444C12.8371 9.08041 13.555 9.43802 14.0641 10.0197C14.4992 10.5382 14.7459 11.1887 14.7641 11.8653C14.7823 12.5419 14.5708 13.2047 14.1641 13.7457C13.9701 14.028 13.8743 14.3664 13.8917 14.7085C13.909 15.0506 14.0385 15.3775 14.2601 15.6387C15.2401 16.7797 16.3211 15.9947 16.8971 15.0287C17.5386 13.9505 17.8276 12.6989 17.7238 11.4486C17.62 10.1982 17.1286 9.01147 16.3181 8.05375C15.2939 6.86971 13.8415 6.14077 12.2801 6.02714C10.7186 5.91351 9.17598 6.42448 7.99112 7.44775C6.81346 8.48972 6.09099 9.95168 5.97863 11.5201C5.86628 13.0885 6.373 14.6386 7.39012 15.8377L9.30112 18.0637L11.2541 20.3337L13.2061 22.6067V22.6087V22.6087Z" fill="#0095E5"/>
</g>
<defs>
<clipPath id="clip0_3943_6551">
<rect width="100" height="30" fill="white"/>
</clipPath>
</defs>
</svg>

<svg xmlns="http://www.w3.org/2000/svg" width="100" height="30" fill="none">
  <g clip-path="url(#a)">
    <path fill="#1E283A" d="M31.422 6.08a1.536 1.536 0 0 1 1.13.48 1.6 1.6 0 0 1 .47 1.161 1.574 1.574 0 0 1-.466 1.15 1.513 1.513 0 0 1-1.115.475 1.52 1.52 0 0 1-1.14-.487 1.61 1.61 0 0 1-.472-1.174 1.568 1.568 0 0 1 .465-1.137 1.546 1.546 0 0 1 1.129-.469l-.001.002Zm-1.256 4.132h2.51V20.25h-2.51V10.212Zm7.25 0v1.11c.419-.43.916-.777 1.465-1.02a4.206 4.206 0 0 1 1.684-.344 4.33 4.33 0 0 1 3.315 1.486 5.416 5.416 0 0 1 1.362 3.81 5.277 5.277 0 0 1-1.41 3.75 4.442 4.442 0 0 1-3.339 1.508c-.55.004-1.094-.1-1.603-.309a4.931 4.931 0 0 1-1.475-1.01v4.73h-2.481V10.211h2.481l.001.001Zm2.627 2.068a2.588 2.588 0 0 0-1.96.813 2.922 2.922 0 0 0-.777 2.118 3.023 3.023 0 0 0 .778 2.163 2.587 2.587 0 0 0 1.96.827 2.526 2.526 0 0 0 1.927-.84 3.01 3.01 0 0 0 .78-2.14c.03-.78-.246-1.54-.768-2.117a2.545 2.545 0 0 0-1.94-.827v.003Zm8.247-6.2a1.536 1.536 0 0 1 1.132.48 1.6 1.6 0 0 1 .47 1.162 1.574 1.574 0 0 1-.466 1.15 1.514 1.514 0 0 1-1.115.475 1.52 1.52 0 0 1-1.14-.487 1.61 1.61 0 0 1-.472-1.174 1.567 1.567 0 0 1 .465-1.137 1.546 1.546 0 0 1 1.129-.469h-.003Zm-1.255 4.132h2.51V20.25h-2.51V10.212Zm4.768 0h2.49v1.026c.46-.412.98-.75 1.545-1a3.686 3.686 0 0 1 1.412-.285A3.405 3.405 0 0 1 59.768 11a3.57 3.57 0 0 1 .87 2.62v6.63h-2.472v-4.398c.03-.8-.024-1.6-.164-2.388a1.644 1.644 0 0 0-.56-.9 1.556 1.556 0 0 0-.98-.309 1.827 1.827 0 0 0-1.306.513c-.387.385-.65.877-.756 1.414a11.697 11.697 0 0 0-.11 2.04v4.03H51.8v-10.04h.003Zm10.06 0h.89c.007-1.314.026-2.092.064-2.335a1.932 1.932 0 0 1 .69-1.314 2.566 2.566 0 0 1 1.672-.486c.601.017 1.195.14 1.755.363v1.92a3.213 3.213 0 0 0-.888-.157.936.936 0 0 0-.64.182.813.813 0 0 0-.145.574l-.01 1.253h1.585v2.14H65.25v7.897h-2.497v-7.896h-.888v-2.14h-.002Zm11.115-.259a5.272 5.272 0 0 1 2.652.712 5.193 5.193 0 0 1 1.929 1.918c.462.801.705 1.712.702 2.638a5.32 5.32 0 0 1-.7 2.657 5.09 5.09 0 0 1-1.91 1.934c-.81.465-1.73.705-2.664.695a4.935 4.935 0 0 1-3.656-1.536 5.13 5.13 0 0 1-1.515-3.73 5.103 5.103 0 0 1 1.712-3.92 4.978 4.978 0 0 1 3.45-1.367Zm.039 2.372a2.553 2.553 0 0 0-1.938.818 2.903 2.903 0 0 0-.772 2.088c-.036.781.24 1.545.764 2.124a2.548 2.548 0 0 0 1.934.812 2.564 2.564 0 0 0 1.95-.82 2.934 2.934 0 0 0 .777-2.114 2.932 2.932 0 0 0-.762-2.097 2.59 2.59 0 0 0-1.953-.81Zm8.65 5.295a1.379 1.379 0 0 1 1.013.42 1.45 1.45 0 0 1-.47 2.354 1.425 1.425 0 0 1-1.812-.653 1.455 1.455 0 0 1-.06-1.233 1.44 1.44 0 0 1 .778-.779c.174-.072.36-.108.549-.107l.001-.002h.001Zm4.86-11.54a1.535 1.535 0 0 1 1.132.48 1.6 1.6 0 0 1 .469 1.162 1.574 1.574 0 0 1-.466 1.15 1.516 1.516 0 0 1-1.115.475 1.52 1.52 0 0 1-1.14-.487 1.61 1.61 0 0 1-.472-1.174c0-.425.166-.833.465-1.136a1.589 1.589 0 0 1 1.128-.47h-.001Zm-1.255 4.132h2.51V20.25h-2.51V10.212Zm9.446-.259a5.272 5.272 0 0 1 2.652.712 5.192 5.192 0 0 1 1.929 1.918c.462.803.704 1.713.702 2.638a5.324 5.324 0 0 1-.7 2.657 5.09 5.09 0 0 1-1.91 1.934 5.24 5.24 0 0 1-2.665.695 4.933 4.933 0 0 1-3.653-1.536 5.131 5.131 0 0 1-1.515-3.73 5.093 5.093 0 0 1 1.708-3.92 4.978 4.978 0 0 1 3.45-1.368h.002Zm.037 2.372a2.549 2.549 0 0 0-1.937.818 2.905 2.905 0 0 0-.773 2.088 2.96 2.96 0 0 0 .766 2.124 2.548 2.548 0 0 0 1.934.812 2.564 2.564 0 0 0 1.949-.82 2.936 2.936 0 0 0 .778-2.114 2.934 2.934 0 0 0-.762-2.097 2.59 2.59 0 0 0-1.956-.809l.001-.002Z"/>
    <path fill="#0095E5" fill-rule="evenodd" d="m13.206 22.609 1.952 2.273 2.255-1.966 2.21-1.926a12.028 12.028 0 0 0 4.055-8.184 12.054 12.054 0 0 0-2.85-8.687 11.871 11.871 0 0 0-8.12-4.087 11.845 11.845 0 0 0-8.62 2.87A12.029 12.029 0 0 0 .03 11.089a12.055 12.055 0 0 0 2.85 8.686l7.79 9.07c.695.81 1.427 1.688 2.558.752l.034-.03.032-.028c1.082-.995.325-1.851-.37-2.662l-.487-.565-7.302-8.507a9.033 9.033 0 0 1 .905-12.63 8.875 8.875 0 0 1 6.453-2.146 8.895 8.895 0 0 1 6.08 3.058 9.033 9.033 0 0 1 2.13 6.503 9.013 9.013 0 0 1-3.034 6.127l-2.208 1.926-1.952-2.273-1.952-2.273-1.91-2.225a2.99 2.99 0 0 1 .297-4.15 2.938 2.938 0 0 1 4.12.299 2.996 2.996 0 0 1 .1 3.726 1.56 1.56 0 0 0 .095 1.893c.98 1.14 2.061.356 2.637-.61a6.027 6.027 0 0 0-.579-6.975 5.906 5.906 0 0 0-8.327-.606 6.011 6.011 0 0 0-.6 8.39l1.91 2.226 1.953 2.27 1.952 2.273v.002Z" clip-rule="evenodd"/>
  </g>
  <defs>
    <clipPath id="a">
      <path fill="#fff" d="M0 0h100v30H0z"/>
    </clipPath>
  </defs>
</svg>
